X:84
T:Sally Gardens, The
S:The Session: https://thesession.org/tunes/98#setting98
S:https://JamBuddy.live 2025
C:Traditional
R:reel
K:G
M:4/4
L:1/8
Q:120
|: G2GA BAGB| dBeB dBAB| d2Bd efge| dBAB GEDE|
! GFGA BAGB| d2eB dBAB| d2Bd efge| dBAB G4:| ! |:
dggf g2de| g2bg ageg| eaag a2eg| a2bg ageg|
! dggf g2de| g2bg ageg| d2Bd efge| dBAB G4:|

